archdroid-icon-theme/Archdroid-BlueGreyDark/mimetypes/scalable/application-x-deb.svg

<svg fill="#263238" height="48" viewBox="0 0 48 48" width="48" xmlns="http://www.w3.org/2000/svg"><path d="m12 6c-.93 0-1.760547.429844-2.310547 1.089844l-2.769531 3.359375c-.58.7-.919922 1.580781-.919922 2.550781v25c0 2.21 1.79 4 4 4h28c2.21 0 4-1.79 4-4v-25c0-.97-.340156-1.850781-.910156-2.550781l-2.769532-3.359375c-.56-.66-1.390312-1.089844-2.320312-1.089844zm-.119141 2h24l1.869141 2h-27.5zm13.402344 8c-.261487.059436-.620711.019105-.867187.109375l-.148438-.021484c.334922-.04321.67482-.059291 1.015625-.087891zm-1.488281.15625c-.174866.097779-.34976.174041-.513672.289062.664977-.158638.632918.066223 1.3125-.023437-.238361.034689-.526719.127952-.480469.164063.759712.088039.875214-.234101 1.578125 0l-.044922-.207032c.976367.352571 1.181228.290781 2.242188.853516.372857.018054.409718-.229029.972656 0 .098996.173851-.022974.205786.667969.617187.077087-.030632-.136644-.225265-.306641-.380859 1.389391.742874 2.898882 2.325241 3.359375 4.019531-.431078-.794807-.043318.40603-.191406.34375.192109.518308.349896 1.054425.447266 1.607422-.127599-.453596-.406856-1.549297-.894532-2.255859-.039761.45603-.628376-.314097-.30664.689453.245258.355414.0493-.360223.351562.271484.004665.300233.12096.598918.1875.990235-.103459-.01704-.23057-.43399-.30664-.31836.104879.49214.276066.74938.341797.78711-.033679.082361-.121054-.076907-.126954.257812.040166.770667.216059.445702.298828.482422-.083984.379146-.423421.826117-.255859 1.478516-.048077-.197586-.14148-.396745-.212891-.583985-.066127.557054.122462.664725-.134765 1.339844.185449-.608581.16685-1.157108-.007813-.892578.07729.864996-.685875 1.529261-.603515 2.076172l-.220703-.304688c-.599858.869663-.013315.477829-.421875 1.136719.149711-.25885-.079714-.107258.115234-.400391-.129424.007506-.576347.551792-.986328.871094-1.611725 1.292018-3.535774 1.461435-5.398438.765625-.072421.059438.332858.375935.63086.529297.709605.262296 1.511074.27333 2.142578.25-1.364844.570849-3.971597-.580898-4.824219-2.107422.192921.041992.855037 1.074625 1.34961 1.242188-.292322-.234304-.518961-.53312-.728516-.839844.394969.454001.875794.824648 1.40039 1.070312-.033671-.1276.144989-.152749-.103515-.320312-1.578862-1.210062-2.513421-2.238169-2.189453-4.619141.240795-.181763.304831-1.175531.857422-1.523437.336748-.744091 1.347173-1.430226 2.425781-1.447266 1.101126-.060655 2.029312.587798 2.496094 1.199219-.849782-.791967-2.241408-1.032594-3.427735-.445313-1.212902.545491-1.931051 1.880782-1.826172 3.210938.045035-.066336.085712-.025339.107422-.189453-.037124 2.585252 2.784153 4.479518 4.816406 3.523437l.025391.054688c.824018-.224769.717063-.411233 1.255859-.78125-.041992.086824-.363171.3082-.171874.3125.262096-.069581 1.0819-.831608 1.484374-1.189453.184601-.398215-.099632-.214185.158204-.714844l.316406-.158203c.175068-.506339.369366-.791348.347656-1.38086l-.185547.386719c.270616-.819353.114204-1.711147.152344-2.482422l-.074219-.019531c-.066132-1.940359-1.743479-4.003535-3.236328-4.701172-1.28654-.594381-3.266538-.69576-4.18164-.248047.125976-.111573.627693-.15813.476562-.24414-1.432803.142408-1.112651.49874-2.210938.779296-.301247.290902.8795-.232585.244141.144532-.589106.162491-.865373-.102556-1.738281.800781.077698.125799.555606-.372286.158203.126953-.820367-.101836-2.592647 1.877153-2.96875 2.533203l.197266.033203c-.322954.809007-.748821 1.325914-.806641 1.810547-.083379 1.191804-.497871 3.364981.080078 4.033203l-.05664.556641c.079318.158231.139691.320256.238281.46875l-.128907.009766c.607972 1.917638.652361.03566 1.455079 2.027343-.116441-.039152-.234705-.081517-.404297-.310546-.020286.174662.248524.698455.566406 1.107421l-.134766.154297c.176894.321331.340161.391726.462891.503906-.660513-.360482.611542 1.189336.726563 1.386719l.101562-.18164c-.014606.259864.187159.594987.564453 1.060547l.314453-.011719c.129425.255807.601624.718524.888672.740234l-.191406.248047c.72056.228218.35064.303768 1.236328.617188l-.179688-.316407c.451569.391927.592879.734922 1.230469 1.035157.883863.308144 1.000809.185854 1.908203.445312-.769043-.022315-1.673278-.014955-2.28125-.232422-4.147885-1.12344-7.943528-5.988538-7.666015-11-.06386-1.014707.102577-2.282595-.066407-2.535156.237145-.772087.50991-1.713586 1.0625-2.833984-.039963-.075058.092086.218985.373047-.259766.170403-.374277.308608-.786662.523438-1.150391l.111328-.02539c.110558-.64185 1.497335-1.625506 1.910156-2.121094l.029297.189453c.900903-.844711 2.506211-1.411167 3.410156-1.814453-.237346.262708.531723-.026877 1.085938-.060547zm.548828.126953c.649761.018464.601473.062715.388672.109375l-.009766.015625-.128906.011719.138672-.027344c.031646-.046454-.194129-.074485-.388672-.109375zm-8.582031 4.427735c-.003652.217872.367309-.215829.101562.382812-.495791.346688-.044762.143002-.101562-.382812zm-.404297 1.667968c-.043615.20286-.063525.415082-.177734.765625.033268-.274471-.137917-.362136.177734-.765625zm12.992187 2.4375c.045086-.001141.076698.111225.054688.439453-.065727.264327-.11954-.161965-.1875-.197265.02911-.125267.087727-.241047.132812-.242188zm3.986329 1.107422c-.097374.748149-.330392 1.485036-.689454 2.160156.324982-.639822.536586-1.329909.634766-2.027343zm-4.222657.244141c-.055786.339182-.214579.667172-.43164.966797.026575-.257633-.605778.111656.126953-.810547-.063694.259864-.679455.944674.001953.515625.123542-.220306.254044-.430066.302734-.671875zm-1.486328 1.408203c-.106299.101025-.225969.205946-.357422.308594-.475913-.073233-.909462-.256619-.544922-.261719.303885.0278.605965.025745.902344-.046875zm-4.599609.048828c.083985.168171.158368.336386.285156.476562l.113281.330079c-.153159-.258241-.318107-.511074-.398437-.806641zm-.28125.498047c.300841.580789.465444.759795.685547 1.189453-.305913-.254387-.49675-.608206-.736329-.933594z" fill="#263238"/></svg>

<svg fill="#263238" height="48" version="1.1" viewBox="0 0 48 48" width="48" xmlns="http://www.w3.org/2000/svg"><path d="M12 6C11.07 6 10.239453 6.429844 9.689453 7.089844L6.919922 10.449219C6.339922 11.149219 6 12.03 6 13L6 38C6 40.21 7.79 42 10 42L38 42C40.21 42 42 40.21 42 38L42 13C42 12.03 41.659844 11.149219 41.089844 10.449219L38.320312 7.089844C37.760312 6.429844 36.93 6 36 6L12 6zM11.880859 8L35.880859 8 37.75 10 10.25 10 11.880859 8zM25.283203 16C25.021716 16.059436 24.662492 16.019105 24.416016 16.109375L24.267578 16.087891C24.6025 16.044681 24.942398 16.0286 25.283203 16zM23.794922 16.15625C23.620056 16.254029 23.445162 16.330291 23.28125 16.445312 23.946227 16.286674 23.914168 16.511535 24.59375 16.421875 24.355389 16.456564 24.067031 16.549827 24.113281 16.585938 24.872993 16.673977 24.988495 16.351837 25.691406 16.585938L25.646484 16.378906C26.622851 16.731477 26.827712 16.669687 27.888672 17.232422 28.261529 17.250476 28.29839 17.003393 28.861328 17.232422 28.960324 17.406273 28.838354 17.438208 29.529297 17.849609 29.606384 17.818977 29.392653 17.624344 29.222656 17.46875 30.612047 18.211624 32.121538 19.793991 32.582031 21.488281 32.150953 20.693474 32.538713 21.894311 32.390625 21.832031 32.582734 22.350339 32.740521 22.886456 32.837891 23.439453 32.710292 22.985857 32.431035 21.890156 31.943359 21.183594 31.903598 21.639624 31.314983 20.869497 31.636719 21.873047 31.881977 22.228461 31.686019 21.512824 31.988281 22.144531 31.992946 22.444764 32.109241 22.743449 32.175781 23.134766 32.072322 23.117726 31.945211 22.700776 31.869141 22.816406 31.97402 23.308546 32.145207 23.565786 32.210938 23.603516 32.177259 23.685877 32.089884 23.526609 32.083984 23.861328 32.12415 24.631995 32.300043 24.30703 32.382812 24.34375 32.298828 24.722896 31.959391 25.169867 32.126953 25.822266 32.078876 25.62468 31.985473 25.425521 31.914062 25.238281 31.847935 25.795335 32.036524 25.903006 31.779297 26.578125 31.964746 25.969544 31.946147 25.421017 31.771484 25.685547 31.848774 26.550543 31.085609 27.214808 31.167969 27.761719L30.947266 27.457031C30.347408 28.326694 30.933951 27.93486 30.525391 28.59375 30.675102 28.3349 30.445677 28.486492 30.640625 28.193359 30.511201 28.200865 30.064278 28.745151 29.654297 29.064453 28.042572 30.356471 26.118523 30.525888 24.255859 29.830078 24.183438 29.889516 24.588717 30.206013 24.886719 30.359375 25.596324 30.621671 26.397793 30.632705 27.029297 30.609375 25.664453 31.180224 23.0577 30.028477 22.205078 28.501953 22.397999 28.543945 23.060115 29.576578 23.554688 29.744141 23.262366 29.509837 23.035727 29.211021 22.826172 28.904297 23.221141 29.358298 23.701966 29.728945 24.226562 29.974609 24.192891 29.847009 24.371551 29.82186 24.123047 29.654297 22.544185 28.444235 21.609626 27.416128 21.933594 25.035156 22.174389 24.853393 22.238425 23.859625 22.791016 23.511719 23.127764 22.767628 24.138189 22.081493 25.216797 22.064453 26.317923 22.003798 27.246109 22.652251 27.712891 23.263672 26.863109 22.471705 25.471483 22.231078 24.285156 22.818359 23.072254 23.36385 22.354105 24.699141 22.458984 26.029297 22.504019 25.962961 22.544696 26.003958 22.566406 25.839844 22.529282 28.425096 25.350559 30.319362 27.382812 29.363281L27.408203 29.417969C28.232221 29.1932 28.125266 29.006736 28.664062 28.636719 28.62207 28.723543 28.300891 28.944919 28.492188 28.949219 28.754284 28.879638 29.574088 28.117611 29.976562 27.759766 30.161163 27.361551 29.87693 27.545581 30.134766 27.044922L30.451172 26.886719C30.62624 26.38038 30.820538 26.095371 30.798828 25.505859L30.613281 25.892578C30.883897 25.073225 30.727485 24.181431 30.765625 23.410156L30.691406 23.390625C30.625274 21.450266 28.947927 19.38709 27.455078 18.689453 26.168538 18.095072 24.18854 17.993693 23.273438 18.441406 23.399414 18.329833 23.901131 18.283276 23.75 18.197266 22.317197 18.339674 22.637349 18.696006 21.539062 18.976562 21.237815 19.267464 22.418562 18.743977 21.783203 19.121094 21.194097 19.283585 20.91783 19.018538 20.044922 19.921875 20.12262 20.047674 20.600528 19.549589 20.203125 20.048828 19.382758 19.946992 17.610478 21.925981 17.234375 22.582031L17.431641 22.615234C17.108687 23.424241 16.68282 23.941148 16.625 24.425781 16.541621 25.617585 16.127129 27.790762 16.705078 28.458984L16.648438 29.015625C16.727756 29.173856 16.788129 29.335881 16.886719 29.484375L16.757812 29.494141C17.365784 31.411779 17.410173 29.529801 18.212891 31.521484 18.09645 31.482332 17.978186 31.439967 17.808594 31.210938 17.788308 31.3856 18.057118 31.909393 18.375 32.318359L18.240234 32.472656C18.417128 32.793987 18.580395 32.864382 18.703125 32.976562 18.042612 32.61608 19.314667 34.165898 19.429688 34.363281L19.53125 34.181641C19.516644 34.441505 19.718409 34.776628 20.095703 35.242188L20.410156 35.230469C20.539581 35.486276 21.01178 35.948993 21.298828 35.970703L21.107422 36.21875C21.827982 36.446968 21.458062 36.522518 22.34375 36.835938L22.164062 36.519531C22.615631 36.911458 22.756941 37.254453 23.394531 37.554688 24.278394 37.862832 24.39534 37.740542 25.302734 38 24.533691 37.977685 23.629456 37.985045 23.021484 37.767578 18.873599 36.644138 15.077956 31.77904 15.355469 26.767578 15.291609 25.752871 15.458046 24.484983 15.289062 24.232422 15.526207 23.460335 15.798972 22.518836 16.351562 21.398438 16.311599 21.32338 16.443648 21.617423 16.724609 21.138672 16.895012 20.764395 17.033217 20.35201 17.248047 19.988281L17.359375 19.962891C17.469933 19.321041 18.85671 18.337385 19.269531 17.841797L19.298828 18.03125C20.199731 17.186539 21.805039 16.620083 22.708984 16.216797 22.471638 16.479505 23.240707 16.18992 23.794922 16.15625zM24.34375 16.283203C24.993511 16.301667 24.945223 16.345918 24.732422 16.392578L24.722656 16.408203 24.59375 16.419922 24.732422 16.392578C24.764068 16.346124 24.538293 16.318093 24.34375 16.283203zM15.761719 20.710938C15.758067 20.92881 16.129028 20.495109 15.863281 21.09375 15.36749 21.440438 15.818519 21.236752 15.761719 20.710938zM15.357422 22.378906C15.313807 22.581766 15.293897 22.793988 15.179688 23.144531 15.212956 22.87006 15.041771 22.782395 15.357422 22.378906zM28.349609 24.816406C28.394695 24.815265 28.426307 24.927631 28.404297 25.255859 28.33857 25.520186 28.284757 25.093894 28.216797 25.058594 28.245907 24.933327 28.304524 24.817547 28.349609 24.816406zM32.335938 25.923828C32.238564 26.671977 32.005546 27.408864 31.646484 28.083984 31.971466 27.444162 32.18307 26.754075 32.28125 26.056641L32.335938 25.923828zM28.113281 26.167969C28.057495 26.507151 27.898702 26.835141 27.681641 27.134766 27.708216 26.877133 27.075863 27.246422 27.808594 26.324219 27.7449 26.584083 27.129139 27.268893 27.810547 26.839844 27.934089 26.619538 28.064591 26.409778 28.113281 26.167969zM26.626953 27.576172C26.520654 27.677197 26.400984 27.782118 26.269531 27.884766 25.793618 27.811533 25.360069 27.628147 25.724609 27.623047 26.028494 27.650847 26.330574 27.648792 26.626953 27.576172zM22.027344 27.625C22.111329 27.793171 22.185712 27.961386 22.3125 28.101562L22.425781 28.431641C22.272622 28.1734 22.107674 27.920567 22.027344 27.625zM21.746094 28.123047C22.046935 28.703836 22.211538 28.882842 22.431641 29.3125 22.125728 29.058113 21.934891 28.704294 21.695312 28.378906L21.746094 28.123047z"/></svg>
